X: 1909
T: A Trip to Holland
P: Glenfiddich
C:Wm. Marshall
R:Strathspey (8x32)
B:RSCDS 19-9
Z:Anselm Lingnau <anselm@strathspey.org>
M:4/4
L:1/8
K:A
c|"A"A2 c>A e>A c>A|E>A c>A "E7"B2 B>c|\
  "A"A/A/A c>A e>A c>A|"Dm"F>d "E7"c>B "A"A2 Ac|
  "A"A2 c>A e>A c>A|E>A c>A "E7"B2 B>c|\
  "A"A/A/A c>A e>A c>A|"Dm"F>d "E7"c>B "A"A2 A||
f/g/|"A"a>e "D"f>d "A"e>c A>g|a>e "D"f>b "E7"g2 ef/g/|\
  "A"a>e "D"f>d "A"e>c B>A|"D"F>d "E7"c>B "A"A2 Ac|
  "A"A>E "D"F>E "A"A>E F>E|"Bm"D>F "A"C>E "E7"B,2 B,c|\
  "A"A>E "D"F>E "A"A>E F>E|"D"F>d "E7"c>B "A"A2 A|]
%%center Book19/1909-Trip_to_Holland-AL.abc

%%sep 1 1 500
%%sep 1 1 500

